outputs/icons/editor/edit_sharp.svg

<svg xmlns="http://www.w3.org/2000/svg" width="1200" height="1200" fill="none"><g clip-path="url(#a)"><path fill="#000" d="M150 862.49v187.5h187.5l553-552.998-187.5-187.5zm920.5-545.498L883 129.492l-126.5 127 187.5 187.5z"/></g><defs><clipPath id="a"><path fill="#fff" d="M0 0h1200v1200H0z"/></clipPath></defs></svg>

<svg width="1200" height="1200" viewBox="0 0 1200 1200" fill="none" xmlns="http://www.w3.org/2000/svg"><g clip-path="url(#clip0_125_1476)"><path d="M150 862.49V1049.99H337.5L890.5 496.992L703 309.492L150 862.49ZM1070.5 316.992L883 129.492L756.5 256.492L944 443.992L1070.5 316.992Z" fill="#1D1E23"/></g><defs><clipPath id="clip0_125_1476"><path width="24" fill="white" d="M0 0H1200V1200H0V0z"/></clipPath></defs></svg>
